REACT_GL/src/assets/SecurityIcon.svg

<svg fill="none" height="33" viewBox="0 0 31 33" width="31" xmlns="http://www.w3.org/2000/svg"><g stroke="#090909" stroke-linecap="round" stroke-linejoin="round"><path d="m24.5417 15.125h-18.08337c-1.42673 0-2.58333 1.2312-2.58333 2.75v9.625c0 1.5188 1.1566 2.75 2.58333 2.75h18.08337c1.4267 0 2.5833-1.2312 2.5833-2.75v-9.625c0-1.5188-1.1566-2.75-2.5833-2.75z"/><path d="m9.04199 15.125v-5.5c0-1.82336.68043-3.57205 1.89161-4.86136 1.2112-1.28931 2.8539-2.01364 4.5667-2.01364 1.7129 0 3.3556.72433 4.5668 2.01364 1.2111 1.28931 1.8916 3.038 1.8916 4.86136v5.5"/></g></svg>

<svg width="31" height="33" viewBox="0 0 31 33" fill="none" xmlns="http://www.w3.org/2000/svg">
<path d="M24.5417 15.125H6.45833C5.0316 15.125 3.875 16.3562 3.875 17.875V27.5C3.875 29.0188 5.0316 30.25 6.45833 30.25H24.5417C25.9684 30.25 27.125 29.0188 27.125 27.5V17.875C27.125 16.3562 25.9684 15.125 24.5417 15.125Z" stroke="#090909" stroke-width = "1"  stroke-linecap="round" stroke-linejoin="round"/>
<path d="M9.04199 15.125V9.625C9.04199 7.80164 9.72242 6.05295 10.9336 4.76364C12.1448 3.47433 13.7875 2.75 15.5003 2.75C17.2132 2.75 18.8559 3.47433 20.0671 4.76364C21.2782 6.05295 21.9587 7.80164 21.9587 9.625V15.125" stroke="#090909" stroke-width = "1" stroke-linecap="round" stroke-linejoin="round"/>
</svg>
